!!!COM: Scriabin, Alexander
!!!OTL@@FR: Prélude en sol majeur
!!!OTL@@EN: Prelude in G Major
!!!OPR@@FR: 4 Préludes
!!!OPR@@EN: 4 Preludes
!!!OPS: 39
!!!ONM: 3
!!!ODT: 1903
!!!AGN: Prelude
**kern	**kern	**dynam
*staff2	*staff1	*staff1/2
*Ipiano	*Ipiano	*
*clefF4	*clefG2	*
*k[f#]	*k[f#]	*
*G:	*G:	*
*M4/2	*M4/2	*
*	*^	*
10BL	[2d	6f#	.
10A#X	.	.	.
.	.	6g	.
10c	.	.	.
10B	.	.	.
.	.	6g#X	.
10B-XJ	.	.	.
=1	=1	=1	=1
10F#L	2d]	6bn	.
10E#X	.	.	.
.	.	6g#X	.
10Gn	.	.	.
10F#	.	.	.
.	.	6a	.
10FnJ	.	.	.
*	*	*^	*
10FL	1d	2a-X	1cc	.
10En	.	.	.	.
10G	.	.	.	.
10F	.	.	.	.
10BB-XJ	.	.	.	.
10A-XL	.	6e	.	.
10G	.	.	.	.
.	.	6gn	.	.
10B-X	.	.	.	.
10A-	.	.	.	.
.	.	6fn	.	.
10BB-J	.	.	.	.
10FL	2d\	2a-X	6an	.
10E	.	.	.	.
.	.	.	6cc	.
10G	.	.	.	.
10F	.	.	.	.
.	.	.	6b-X	.
10BB-J	.	.	.	.
=2	=2	=2	=2	=2
10E-XL	3B-X\	2d-X	3a-X	.
10Dn	.	.	.	.
10Fn	.	.	.	.
10E-	.	.	.	.
.	6g\	.	6g	.
10EE-XJ	.	.	.	.
10G-XL	1c	6dn	[2b-X	.
10F	.	.	.	.
.	.	6fn	.	.
10A-X	.	.	.	.
10G-	.	.	.	.
.	.	6e-X	.	.
10AA-XJ	.	.	.	.
10E-L	.	2g-X	4..b-]	.
10D	.	.	.	.
10F	.	.	.	.
10E-	.	.	.	.
10AA-J	.	.	.	.
.	.	.	16a-	.
10DL	2An\	2c	3gn	.
10C#X	.	.	.	.
10En	.	.	.	.
10D	.	.	.	.
.	.	.	6f#X	.
10DDJ	.	.	.	.
=3	=3	=3	=3	=3
10DL	2B\	4B	2a	.
10C#X	.	.	.	.
10E	.	.	.	.
.	.	4f#	.	.
10D	.	.	.	.
10GGJ	.	.	.	.
*	*	*v	*v	*
10BL	2g	2g	.
10A#X	.	.	.
10cn	.	.	.
10B	.	.	.
10DJ	.	.	.
*	*v	*v	*
10dL	2r	.
10c#X	.	.
10e	.	.
10d	.	.
10GJ	.	.
*	*^	*
10BL	[2d	6f#	.
10A#	.	.	.
.	.	6g	.
10cn	.	.	.
10B	.	.	.
.	.	6g#X	.
10B-XJ	.	.	.
=4	=4	=4	=4
10F#L	2d]	6bn	.
10E#X	.	.	.
.	.	6g#X	.
10Gn	.	.	.
10F#	.	.	.
.	.	6a	.
10FnJ	.	.	.
*	*	*^	*
10FL	1d	2a-X	1cc	.
10En	.	.	.	.
10G	.	.	.	.
10F	.	.	.	.
10BB-XJ	.	.	.	.
10A-XL	.	6e	.	.
10G	.	.	.	.
.	.	6gn	.	.
10B-X	.	.	.	.
10A-	.	.	.	.
.	.	6fn	.	.
10BB-J	.	.	.	.
10FL	2d\	2a-X	6an	.
10E	.	.	.	.
.	.	.	6cc	.
10G	.	.	.	.
10F	.	.	.	.
.	.	.	6b-X	.
10BB-J	.	.	.	.
=5	=5	=5	=5	=5
10E-XL	3B-X\	2d-X	3a-X	.
10Dn	.	.	.	.
10Fn	.	.	.	.
10E-	.	.	.	.
.	6g\	.	6g	.
10EE-XJ	.	.	.	.
10d-XL	1g	6an	[2ffn	.
10c	.	.	.	.
.	.	6cc	.	.
10e-X	.	.	.	.
10d-	.	.	.	.
.	.	6b-X	.	.
10E-J	.	.	.	.
10B-XL	.	2dd-X	4..ff]	.
10A	.	.	.	.
10c	.	.	.	.
10B-	.	.	.	.
10E-J	.	.	.	.
.	.	.	16ee-X	.
10AL	2en\	2g	3ddn	.
10G#X	.	.	.	.
10Bn	.	.	.	.
10A	.	.	.	.
.	.	.	6cc#X	.
10AAJ	.	.	.	.
=6	=6	=6	=6	=6
10AL	2f#\	4f#	2ee	.
10G#X	.	.	.	.
10B	.	.	.	.
.	.	4cc#X	.	.
10A	.	.	.	.
10DJ	.	.	.	.
*	*	*v	*v	*
10f#L	2dd	2dd	.
10e#X	.	.	.
10gn	.	.	.
10f#	.	.	.
10AJ	.	.	.
*	*v	*v	*
10dL	2r	.
10c#X	.	.
10en	.	.
10d	.	.
10AJ	.	.
*	*^	*
10AL	2fn	4.ccn	.
10G#X	.	.	.
10B	.	.	.
10A	.	.	.
.	.	8cc	.
10G#J	.	.	.
=7	=7	=7	=7
10AL	2fn	1cc	.
10G#X	.	.	.
10B	.	.	.
10A	.	.	.
10G#J	.	.	.
*	*^	*	*
10GnL	2e\	2a	.	.
10F#	.	.	.	.
10A	.	.	.	.
10G#X	.	.	.	.
10GnJ	.	.	.	.
10F#L	2d#X\	2a	2b	.
10E#X	.	.	.	.
10G	.	.	.	.
10E#	.	.	.	.
10F#J	.	.	.	.
10GL	2e-X\	3b-	3b-X	.
10F#	.	.	.	.
10A-X	.	.	.	.
10G	.	.	.	.
.	.	6g	6bn	.
10E-XJ	.	.	.	.
=8	=8	=8	=8	=8
10A-XL	2e-X\	2g	2cc	.
10G	.	.	.	.
10B-X	.	.	.	.
10A-	.	.	.	.
10E-XJ	.	.	.	.
10A-L	2c\	2e-	2g	.
10G	.	.	.	.
10B-	.	.	.	.
10A-	.	.	.	.
10E-J	.	.	.	.
10AnL	2c\	2d	2f#	.
10G#X	.	.	.	.
10Bn	.	.	.	.
10A	.	.	.	.
10DJ	.	.	.	.
10A-XL	2c\	2e-	2g	.
10Gn	.	.	.	.
10B-X	.	.	.	.
10A-	.	.	.	.
10E-J	.	.	.	.
=9	=9	=9	=9	=9
10A-XL	2c\	2e-X	2g	.
10G	.	.	.	.
10B-X	.	.	.	.
10A-	.	.	.	.
10E-XJ	.	.	.	.
10AnL	2c\	2d	2f#	.
10G#X	.	.	.	.
10Bn	.	.	.	.
10A	.	.	.	.
10DJ	.	.	.	.
*	*	*v	*v	*
*	*v	*v	*
10cL	2r	.
10B	.	.
10d	.	.
10c#X	.	.
10cnJ	.	.
*	*^	*
10BL	[2d	6f#	.
10A#X	.	.	.
.	.	6g	.
10c	.	.	.
10B	.	.	.
.	.	6g#X	.
10B-XJ	.	.	.
=10	=10	=10	=10
10F#L	2d]	6bn	.
10E#X	.	.	.
.	.	6g#X	.
10Gn	.	.	.
10F#	.	.	.
.	.	6a	.
10FnJ	.	.	.
*	*	*^	*
10FL	1d	2a-X	1cc	.
10En	.	.	.	.
10G	.	.	.	.
10F	.	.	.	.
10BB-XJ	.	.	.	.
10A-XL	.	6e	.	.
10G	.	.	.	.
.	.	6gn	.	.
10B-X	.	.	.	.
10A-	.	.	.	.
.	.	6fn	.	.
10BB-J	.	.	.	.
10FL	2d\	2a-X	6an	.
10E	.	.	.	.
.	.	.	6cc	.
10G	.	.	.	.
10F	.	.	.	.
.	.	.	6b-X	.
10BB-J	.	.	.	.
=11	=11	=11	=11	=11
10E-XL	3B-X\	2d-X	3a-X	.
10Dn	.	.	.	.
10Fn	.	.	.	.
10E-	.	.	.	.
.	6g\	.	6g	.
10EE-XJ	.	.	.	.
10G-XL	1c	6dn	[2b-X	.
10F	.	.	.	.
.	.	6fn	.	.
10A-X	.	.	.	.
10G-	.	.	.	.
.	.	6e-X	.	.
10AA-XJ	.	.	.	.
10E-L	.	2g-X	4..b-]	.
10D	.	.	.	.
10F	.	.	.	.
10E-	.	.	.	.
10AA-J	.	.	.	.
.	.	.	16a-	.
10DL	2An\	2c	3gn	.
10C#X	.	.	.	.
10En	.	.	.	.
10D	.	.	.	.
.	.	.	6f#X	.
10DDJ	.	.	.	.
=12	=12	=12	=12	=12
10DL	1.B	1.fn	2a	.
10C#X	.	.	.	.
10E	.	.	.	.
10D	.	.	.	.
10GGJ	.	.	.	.
10DL	.	.	1g	.
10C#	.	.	.	.
10E	.	.	.	.
10D	.	.	.	.
10GGJ	.	.	.	.
10DL	.	.	.	.
10C#	.	.	.	.
10E	.	.	.	.
10D	.	.	.	.
10GGJ	.	.	.	.
10DL	2B\	2f	3g	.
10C#	.	.	.	.
10E	.	.	.	.
10D	.	.	.	.
.	.	.	6g	.
10GGJ	.	.	.	.
=13	=13	=13	=13	=13
10CnL	1B	1.e	1.g	.
10BB	.	.	.	.
10D	.	.	.	.
10C	.	.	.	.
10GGJ	.	.	.	.
10CL	.	.	.	.
10BB	.	.	.	.
10D	.	.	.	.
10C	.	.	.	.
10GGJ	.	.	.	.
10CL	2A\	.	.	.
10BB	.	.	.	.
10D	.	.	.	.
10C	.	.	.	.
10GGJ	.	.	.	.
10EL	2c\	2g	2a	.
10D	.	.	.	.
10Fn	.	.	.	.
10E	.	.	.	.
10GGJ	.	.	.	.
*	*	*v	*v	*
*	*v	*v	*
=14	=14	=14
0GGG 0GG 0D	0B 0g 0dd	.
==	==	==
*-	*-	*-
!!!system-decoration: {(*)}
!!!filter: flipper -a
!!!ENC: Bryan Jacob Bell
!!!END: November 2021 to April 2022
!!!PED: Konstantin Igumnov and Yakov Milstein
!!!PTL: A.N. Skryabin: Polnoe sobranie sochinenii dlia fortepiano (Muzgiz)
